; HEADER_BLOCK_START
; generated by OrcaSlicer 1.9.0 on 2025-02-02 at 19:50:27
; total layer number: 240
; filament_density: 1.27
; filament_diameter: 1.75
; max_z_height: 48.00
; HEADER_BLOCK_END

; THUMBNAIL_BLOCK_START

;
; THUMBNAIL_BLOCK_END

; external perimeters extrusion width = 0.40mm
; perimeters extrusion width = 0.45mm
; infill extrusion width = 0.45mm
; solid infill extrusion width = 0.45mm
; top infill extrusion width = 0.38mm
; first layer extrusion width = 0.42mm

; EXECUTABLE_BLOCK_START
M73 P0 R121
M201 X500 Y500 Z100 E5000
M203 X500 Y500 Z10 E60
M204 P500 R1000 T500 ; sets acceleration (P, T) and retract acceleration (R), mm/sec^2
M205 X8.00 Y8.00 Z0.40 E5.00 ; sets the jerk limits, mm/sec
;TYPE:Custom
M413 S0 ; disable Power Loss Recovery
G90 ; use absolute coordinates
M83 ; extruder relative mode
M104 S120 ; set temporary nozzle temp to prevent oozing during homing and auto bed leveling
M140 S70 ; set final bed temp
G4 S10 ; allow partial nozzle warmup
G28 ; home all axis
;G29 ; run abl mesh
M420 S1 ; load mesh
G1 Z50 F240
G1 X2 Y10 F3000
M104 S240 ; set final nozzle temp
M190 S70 ; wait for bed temp to stabilize
M109 S240 ; wait for nozzle temp to stabilize
G1 Z0.28 F240
G92 E0
G1 Y140 E10 F1500 ; prime the nozzle
M73 P0 R120
G1 X2.3 F5000
G92 E0
G1 Y10 E10 F1200 ; prime the nozzle
G92 E0
G90
G21
M83 ; use relative distances for extrusion
; filament start gcode
M106 S0
;LAYER_CHANGE
;Z:0.2
;HEIGHT:0.2
;BEFORE_LAYER_CHANGE
G92 E0
;0.2


G1 E-2.5 F3600
;AFTER_LAYER_CHANGE
;0.2
;_SET_FAN_SPEED_CHANGING_LAYER
M204 P20
M204 T20
G1 Z.4 F9000
G1 X91.092 Y110.243
G1 Z.4
G1 Z.2
G1 E2.5 F3600
;TYPE:Skirt
;WIDTH:0.42
G1 F3000
G1 X91.691 Y109.788 E.0224
G1 X92.404 Y109.487 E.02306
G1 X93.093 Y109.37 E.02081
G1 X117.779 Y107.881 E.73664
G1 X120.153 Y108.087 E.071
G1 X122.108 Y108.521 E.05966
G1 X123.95 Y109.168 E.05815
G1 X125.873 Y110.126 E.06398
G1 X127.719 Y111.372 E.06634
G1 X129.357 Y112.832 E.06537
G1 X130.806 Y114.52 E.06626
G1 X131.94 Y116.264 E.06196
G1 X132.228 Y117.219 E.02973
G1 X132.171 Y118.106 E.02645
G1 X131.89 Y118.83 E.02314
G1 X131.107 Y120.064 E.04356
G1 X130.152 Y121.299 E.0465
G1 X128.901 Y122.614 E.05406
G1 X127.447 Y123.835 E.05653
G1 X126.151 Y124.709 E.04657
G1 X124.017 Y125.803 E.07144
G1 X122.054 Y126.494 E.06199
G1 X119.763 Y126.971 E.06969
G1 X117.27 Y127.118 E.07441
G1 X92.924 Y125.615 E.72654
G1 X92.199 Y125.448 E.02219
G1 X91.608 Y125.162 E.01955
G1 X91.009 Y124.673 E.02303
G1 X90.611 Y124.147 E.01963
G1 X90.309 Y123.47 E.0221
G1 X90.16 Y122.626 E.02551
G1 X90.165 Y112.289 E.30792
G1 X90.309 Y111.53 E.02299
G1 X90.629 Y110.824 E.02309
G1 X91.061 Y110.282 E.02066
; printing object 3DBenchy (1).stl id:0 copy 0
G1 E-2.125 F3600
;WIPE_START
G1 F3000
G1 X91.691 Y109.788 E-.30024
G1 X91.875 Y109.71 E-.07476
;WIPE_END
G1 Z.6 F9000
G1 X123.823 Y123.025 Z.6
G1 Z.2
G1 E2.5 F3600
;TYPE:Inner wall
;WIDTH:0.419999
G1 F1200
G1 X122.989 Y123.413 E.02738
G1 X122.235 Y123.711 E.02416
;WIDTH:0.462565
G1 X121.954 Y123.785 E.00962
;WIDTH:0.50513
G1 X121.674 Y123.859 E.01059
G1 X121.729 Y123.824 E.0024
;WIDTH:0.493837
G1 X121.919 Y123.655 E.00905
;WIDTH:0.456918
G1 X122.11 Y123.487 E.00831
;WIDTH:0.419999
G1 X122.566 Y122.895 E.02227
G1 X122.729 Y122.574 E.01071
G1 X122.941 Y122.102 E.01539
G1 X123.65 Y120.21 E.06019
G1 X123.748 Y120.655 E.01355
G1 X123.943 Y121.019 E.01232
G1 X124.316 Y121.412 E.01613
G1 X124.625 Y121.558 E.01017
G1 X124.883 Y121.626 E.00796
G1 X125.333 Y121.659 E.01343
G1 X126.018 Y121.639 E.02042
G1 X125.353 Y122.121 E.02447
G1 X124.753 Y122.502 E.02116
G1 X123.866 Y123.001 E.03032
G1 E-2.125 F3600
;WIPE_START
G1 F1200
G1 X122.989 Y123.413 E-.36335
G1 X122.96 Y123.424 E-.01165
;WIPE_END
G1 Z.6 F9000
G1 X128.259 Y120.547 Z.6
G1 Z.2
G1 E2.5 F3600
;TYPE:Outer wall
;WIDTH:0.68668
G1 F1200
G1 X128.026 Y120.783 E.01687
G1 E-2.125 F3600
;WIPE_START
G1 F1200
G1 X128.259 Y120.547 E-.375
;WIPE_END
G1 Z.6 F9000
G1 X128.12 Y118.589 Z.6
G1 Z.2
G1 E2.5 F3600
;TYPE:Inner wall
;WIDTH:0.595587
G1 F1200
G1 X128.776 Y117.634 E.05057
;WIDTH:0.595384
G1 X128.973 Y117.247 E.01893
G1 X129.079 Y116.828 E.01887
G1 X129.32 Y117.225 E.02025
G1 X129.458 Y117.509 E.01377
G1 X129.357 Y117.718 E.01016
;WIDTH:0.597831
G1 X129.025 Y118.26 E.02785
G1 X128.592 Y118.873 E.0329
;WIDTH:0.595587
G1 X128.39 Y118.713 E.01124
G1 X128.165 Y118.61 E.0108
G1 X127.326 Y118.904 F9000
;WIDTH:0.419999
G1 F1200
G1 X128.398 Y117.372 E.05569
G1 X128.548 Y117.059 E.01033
G1 X128.634 Y116.68 E.01157
G1 X128.63 Y116.315 E.01088
;WIDTH:0.467519
G1 X128.624 Y116.233 E.00275
;WIDTH:0.515039
G1 X128.618 Y116.151 E.00306
;WIDTH:0.562558
G1 X128.612 Y116.07 E.00337
;WIDTH:0.610078
G1 X128.606 Y115.988 E.00367
;WIDTH:0.657597
G1 X128.6 Y115.906 E.00398
;WIDTH:0.705117
G1 X128.594 Y115.824 E.00429
;WIDTH:0.752637
G1 X128.588 Y115.742 E.0046
;WIDTH:0.800156
G1 X128.582 Y115.661 E.00491
G1 X128.636 Y115.695 E.00385
;WIDTH:0.754945
G1 X128.691 Y115.729 E.00362
;WIDTH:0.709734
G1 X128.745 Y115.763 E.00339
;WIDTH:0.664523
G1 X128.8 Y115.797 E.00316
;WIDTH:0.619312
G1 X128.854 Y115.831 E.00293
;WIDTH:0.574101
G1 X128.909 Y115.865 E.0027
;WIDTH:0.52889
G1 X128.963 Y115.899 E.00247
;WIDTH:0.483679
G1 X129.13 Y116.108 E.00929
;WIDTH:0.451839
G1 X129.297 Y116.316 E.00862
;WIDTH:0.419999
G1 X129.577 Y116.754 E.01548
G1 X129.882 Y117.278 E.01806
G1 X129.921 Y117.55 E.00819
G1 X129.861 Y117.776 E.00697
G1 X129.421 Y118.507 E.02541
G1 X128.611 Y119.651 E.04175
G1 X128.434 Y119.365 E.01001
G1 X128.244 Y119.184 E.00782
G1 X127.877 Y118.992 E.01232
G1 X127.375 Y118.912 E.01516
G1 E-2.125 F3600
;WIPE_START
G1 F1200
G1 X127.928 Y118.079 E-.375
;WIPE_END
G1 Z.6 F9000
G1 X126.539 Y114.925 Z.6
G1 Z.2
G1 E2.5 F3600
G1 F1200
G1 X125.259 Y114.93 E.03811
G1 X124.702 Y115.031 E.01687
G1 X124.26 Y115.268 E.01496
G1 X124.037 Y115.099 E.00832
G1 X123.588 Y114.938 E.0142
G1 X123.256 Y114.942 E.0099
G1 X122.805 Y115.051 E.01382
G1 X122.379 Y115.349 E.01549
G1 X122.067 Y115.758 E.01533
G1 X121.754 Y115.357 E.01516
G1 X121.459 Y115.149 E.01076
G1 X121.126 Y115.012 E.01072
G1 X120.577 Y114.919 E.0166
G1 X120.011 Y115.035 E.0172
G1 X119.646 Y115.278 E.01306
G1 X119.277 Y115.043 E.01306
G1 X118.847 Y114.925 E.01327
G1 X118.314 Y114.99 E.01602
G1 X117.963 Y115.151 E.01148
G1 X117.684 Y115.393 E.01102
G1 X117.409 Y115.144 E.01107
G1 X117.031 Y114.984 E.01222
G1 X116.73 Y114.924 E.00916
G1 X116.167 Y114.994 E.01689
G1 X115.796 Y115.159 E.0121
G1 X115.429 Y115.488 E.01466
G1 X115.222 Y115.822 E.01173
G1 X115.113 Y116.211 E.01202
G1 X115.123 Y116.593 E.0114
G1 X115.191 Y116.9 E.00935
G1 X115.413 Y117.426 E.01701
G1 X115.874 Y118.235 E.02774
G1 X115.77 Y118.425 E.00645
G1 X115.512 Y118.231 E.0096
G1 X114.99 Y117.932 E.01791
G1 X114.609 Y117.838 E.0117
G1 X114.162 Y117.834 E.01332
G1 X114.178 Y117.636 E.00591
G1 X114.154 Y116.835 E.02387
G1 X114.06 Y116.243 E.01786
G1 X113.927 Y115.815 E.01336
G1 X113.721 Y115.286 E.01692
G1 X113.391 Y114.753 E.01865
G1 X113.005 Y114.328 E.0171
G1 X112.502 Y113.955 E.01866
G1 X111.966 Y113.714 E.01753
G1 X111.393 Y113.572 E.01757
G1 X110.851 Y113.506 E.01625
G1 X109.254 Y113.47 E.04759
G1 X108.735 Y113.525 E.01553
G1 X108.113 Y113.81 E.0204
G1 X107.795 Y114.138 E.01359
G1 X107.658 Y114.376 E.0082
G1 X107.161 Y113.87 E.02111
G1 X106.908 Y113.699 E.0091
G1 X106.226 Y113.422 E.02193
G1 X105.636 Y113.325 E.01781
G1 X104.991 Y113.318 E.01921
G1 X104.194 Y113.461 E.02413
G1 X103.635 Y113.697 E.01806
G1 X103.294 Y113.919 E.01213
G1 X103.077 Y113.72 E.00878
G1 X102.849 Y113.613 E.00749
G1 X102.285 Y113.481 E.01725
G1 X99.002 Y113.492 E.09778
G1 X98.32 Y113.457 E.02035
G1 X98.053 Y113.481 E.00798
G1 X97.61 Y113.642 E.01403
G1 X97.179 Y114.009 E.01686
G1 X96.757 Y113.71 E.01543
G1 X96.277 Y113.493 E.01569
G1 X95.763 Y113.366 E.01576
G1 X94.838 Y113.32 E.0276
G1 X94.234 Y113.406 E.01815
G1 X93.85 Y113.53 E.01202
G1 X93.275 Y113.788 E.01879
G1 X92.693 Y114.225 E.02167
G1 X92.695 Y112.744 E.04411
G1 X92.753 Y112.376 E.01109
G1 X92.852 Y112.156 E.0072
G1 X93.043 Y112.012 E.00713
G1 X93.39 Y111.908 E.01077
G1 X116.71 Y110.491 E.69591
G1 X117.78 Y110.467 E.03189
G1 X118.563 Y110.502 E.02335
G1 X119.326 Y110.579 E.02285
G1 X120.093 Y110.701 E.02313
G1 X121.122 Y110.935 E.03143
G1 X121.694 Y111.105 E.01777
G1 X122.926 Y111.555 E.03907
G1 X123.719 Y111.92 E.02599
G1 X124.557 Y112.373 E.02839
G1 X125.345 Y112.878 E.02788
G1 X126.078 Y113.409 E.02696
G1 X126.815 Y114.029 E.02868
G1 X127.725 Y114.941 E.03838
G1 X127.537 Y114.921 E.00565
G1 X126.589 Y114.925 E.02823
G1 X126.562 Y115.297 F9000
G1 F1200
G1 X125.409 Y115.295 E.03433
G1 X124.902 Y115.369 E.01526
G1 X124.568 Y115.514 E.01086
G1 X124.257 Y115.81 E.01278
G1 X123.921 Y115.47 E.01423
G1 X123.637 Y115.34 E.00932
G1 X123.327 Y115.312 E.00927
G1 X122.974 Y115.389 E.01078
G1 X122.689 Y115.58 E.0102
G1 X122.384 Y115.959 E.01451
G1 X122.199 Y116.334 E.01246
G1 X122.033 Y116.886 E.01715
G1 X121.728 Y115.921 E.03015
G1 X121.499 Y115.635 E.01091
G1 X121.139 Y115.407 E.01272
G1 X120.571 Y115.296 E.01724
G1 X120.187 Y115.375 E.01166
G1 X119.912 Y115.542 E.0096
G1 X119.655 Y115.865 E.0123
G1 X119.624 Y115.813 E.00179
G1 X119.234 Y115.433 E.01624
G1 X118.851 Y115.305 E.01202
G1 X118.405 Y115.356 E.01336
G1 X118.092 Y115.517 E.01048
G1 X117.69 Y115.965 E.01794
G1 X117.363 Y115.598 E.01462
G1 X117.174 Y115.444 E.00727
M73 P1 R120
G1 X116.717 Y115.301 E.01425
G1 X116.307 Y115.35 E.01232
G1 X116.002 Y115.475 E.00982
G1 X115.663 Y115.793 E.01382
G1 X115.519 Y116.11 E.01037
G1 X115.487 Y116.33 E.00664
G1 X115.54 Y116.758 E.01284
G1 X115.741 Y117.239 E.01554
G1 X116.336 Y118.267 E.03537
G1 X116.1 Y118.606 E.01229
G1 X115.781 Y119.189 E.01979
G1 X115.472 Y118.699 E.01725
G1 X115.313 Y118.551 E.00648
G1 X114.866 Y118.288 E.01545
G1 X114.373 Y118.19 E.01495
G1 X113.93 Y118.245 E.01332
G1 X113.728 Y118.312 E.00633
G1 X113.795 Y117.73 E.01745
G1 X113.794 Y117.304 E.01268
G1 X113.759 Y116.756 E.01637
G1 X113.626 Y116.098 E.01998
G1 X113.396 Y115.476 E.01976
G1 X113.105 Y114.998 E.01666
G1 X112.77 Y114.623 E.01499
G1 X112.337 Y114.294 E.01621
G1 X111.87 Y114.078 E.0153
G1 X111.344 Y113.946 E.01617
G1 X110.843 Y113.883 E.01505
G1 X109.245 Y113.847 E.04759
G1 X108.823 Y113.892 E.01265
G1 X108.312 Y114.13 E.01679
G1 X108.122 Y114.327 E.00815
G1 X107.934 Y114.711 E.01275
;WIDTH:0.466716
G1 X107.911 Y114.781 E.00246
;WIDTH:0.513433
G1 X107.888 Y114.851 E.00273
;WIDTH:0.560149
G1 X107.865 Y114.921 E.00301
;WIDTH:0.606866
G1 X107.841 Y114.991 E.00328
;WIDTH:0.653583
G1 X107.818 Y115.061 E.00355
;WIDTH:0.7003
G1 X107.795 Y115.13 E.00382
;WIDTH:0.747016
G1 X107.772 Y115.2 E.00409
G1 X107.73 Y115.14 E.0041
;WIDTH:0.700128
G1 X107.688 Y115.079 E.00383
;WIDTH:0.653239
G1 X107.645 Y115.019 E.00356
;WIDTH:0.60635
G1 X107.603 Y114.958 E.00328
;WIDTH:0.559461
G1 X107.561 Y114.897 E.00301
;WIDTH:0.512572
G1 X107.397 Y114.677 E.01021
;WIDTH:0.466286
G1 X107.232 Y114.456 E.0092
;WIDTH:0.419999
G1 X106.751 Y114.042 E.01893
G1 X106.164 Y113.794 E.01895
G1 X105.575 Y113.697 E.01781
G1 X105.043 Y113.692 E.01584
G1 X104.34 Y113.808 E.02121
G1 X103.782 Y114.044 E.01806
G1 X103.492 Y114.242 E.01045
G1 X103.246 Y114.5 E.01063
G1 X102.939 Y114.087 E.01532
G1 X102.77 Y113.984 E.00587
G1 X102.286 Y113.858 E.01491
G1 X99.03 Y113.869 E.097
G1 X98.238 Y113.834 E.02361
G1 X97.802 Y113.967 E.01358
G1 X97.468 Y114.259 E.01322
G1 X97.269 Y114.644 E.01288
G1 X97.091 Y114.441 E.00804
G1 X96.681 Y114.114 E.0156
G1 X96.258 Y113.887 E.01431
G1 X95.736 Y113.742 E.01614
G1 X94.891 Y113.694 E.02522
G1 X94.287 Y113.779 E.01815
G1 X93.989 Y113.881 E.00938
G1 X93.494 Y114.095 E.01608
G1 X92.918 Y114.526 E.02144
G1 X92.533 Y114.978 E.01766
G1 X92.314 Y115.376 E.01354
G1 X92.318 Y112.734 E.0787
G1 X92.414 Y112.158 E.01739
G1 X92.553 Y111.919 E.00824
G1 X92.754 Y111.73 E.00822
G1 X92.967 Y111.633 E.00698
G1 X93.348 Y111.533 E.01174
G1 X116.694 Y110.114 E.69667
G1 X117.784 Y110.09 E.03248
M73 P1 R119
G1 X118.591 Y110.126 E.02404
G1 X119.375 Y110.205 E.02349
G1 X120.165 Y110.331 E.02382
G1 X121.218 Y110.57 E.03217
G1 X121.986 Y110.798 E.02386
G1 X123.009 Y111.178 E.03251
G1 X123.827 Y111.55 E.02678
G1 X124.708 Y112.023 E.02977
G1 X125.402 Y112.455 E.02435
G1 X126.285 Y113.091 E.03242
G1 X127.054 Y113.736 E.02991
G1 X127.7 Y114.355 E.02664
G1 X128.139 Y114.833 E.01934
;WIDTH:0.465181
G1 X128.161 Y114.894 E.00217
;WIDTH:0.510363
G1 X128.184 Y114.955 E.0024
;WIDTH:0.555545
G1 X128.206 Y115.016 E.00263
;WIDTH:0.600727
G1 X128.228 Y115.077 E.00286
;WIDTH:0.645909
G1 X128.25 Y115.138 E.00309
;WIDTH:0.691091
G1 X128.273 Y115.199 E.00332
;WIDTH:0.736273
G1 X128.295 Y115.26 E.00356
;WIDTH:0.781455
G1 X128.317 Y115.321 E.00379
;WIDTH:0.826636
G1 X128.339 Y115.382 E.00402
G1 X128.279 Y115.371 E.00378
;WIDTH:0.780192
G1 X128.219 Y115.36 E.00355
;WIDTH:0.733747
G1 X128.16 Y115.349 E.00333
;WIDTH:0.687303
G1 X128.1 Y115.337 E.0031
;WIDTH:0.640858
G1 X127.987 Y115.329 E.00533
;WIDTH:0.596687
G1 X127.874 Y115.322 E.00494
;WIDTH:0.552515
G1 X127.762 Y115.314 E.00455
;WIDTH:0.508343
G1 X127.649 Y115.306 E.00415
;WIDTH:0.464171
G1 X127.536 Y115.298 E.00376
;WIDTH:0.419999
G1 X126.612 Y115.297 E.02754
G1 E-2.125 F3600
;WIPE_START
G1 F1200
G1 X125.612 Y115.296 E-.375
;WIPE_END
G1 Z.6 F9000
G1 X112.979 Y119.473 Z.6
G1 Z.2
G1 E2.5 F3600
;TYPE:Outer wall
;WIDTH:0.717254
G1 F1200
G1 X113.188 Y119.043 E.02548
G1 E-2.125 F3600
;WIPE_START
G1 F1200
G1 X112.979 Y119.473 E-.375
;WIPE_END
G1 Z.6 F9000
G1 X107.788 Y116.042 Z.6
G1 Z.2
G1 E2.5 F3600
;TYPE:Inner wall
;WIDTH:0.73804
G1 F1200
G1 X107.811 Y116.176 E.00743
;WIDTH:0.690902
G1 X107.834 Y116.309 E.00692
;WIDTH:0.643764
G1 X107.858 Y116.442 E.00642
;WIDTH:0.596626
G1 X107.881 Y116.575 E.00592
;WIDTH:0.549488
G1 X107.879 Y117.979 E.05618
G1 X107.897 Y118.251 E.01091
;WIDTH:0.513553
G1 X107.914 Y118.523 E.01013
G1 X107.878 Y118.255 E.01008
;WIDTH:0.549488
G1 X107.842 Y117.986 E.01085
G1 X107.619 Y117.395 E.02527
G1 X107.456 Y117.154 E.01163
G1 X107.261 Y116.982 E.01042
G1 X107.408 Y116.832 E.0084
G1 X107.572 Y116.538 E.01346
;WIDTH:0.596626
G1 X107.626 Y116.414 E.00591
;WIDTH:0.643764
G1 X107.68 Y116.29 E.00642
;WIDTH:0.690902
G1 X107.734 Y116.166 E.00692
;WIDTH:0.73804
G1 X107.768 Y116.088 E.00468
G1 E-2.125 F3600
;WIPE_START
G1 F1200
G1 X107.811 Y116.176 E-.03658
G1 X107.834 Y116.309 E-.05073
G1 X107.858 Y116.442 E-.05073
G1 X107.881 Y116.575 E-.05073
G1 X107.881 Y117.072 E-.18623
;WIPE_END
G1 Z.6 F9000
G1 X94.968 Y116.449 Z.6
G1 Z.2
G1 E2.5 F3600
;WIDTH:0.419999
G1 F1200
G1 X95.761 Y116.841 E.02633
G1 X96.267 Y116.953 E.01544
G1 X96.691 Y116.928 E.01265
G1 X97.112 Y116.751 E.01361
G1 X97.361 Y116.588 E.00887
G1 X97.54 Y116.374 E.00831
G1 X97.587 Y116.41 E.00177
G1 X98.028 Y116.561 E.01389
G1 X98.419 Y116.602 E.01171
G1 X98.702 Y116.573 E.00849
G1 X98.718 Y116.655 E.00248
G1 X98.735 Y119.415 E.08222
G1 X98.707 Y120.092 E.02019
G1 X98.783 Y120.503 E.01243
G1 X99.016 Y120.941 E.0148
G1 X99.362 Y121.228 E.01337
G1 X99.712 Y121.388 E.01147
G1 X100.141 Y121.472 E.01304
G1 X100.587 Y121.43 E.01333
G1 X100.914 Y121.322 E.01028
G1 X101.321 Y121.037 E.01478
G1 X101.598 Y120.666 E.0138
G1 X101.769 Y120.12 E.01705
G1 X101.806 Y119.838 E.00846
G1 X101.79 Y116.566 E.09747
G1 X102.153 Y116.553 E.01081
G1 X102.798 Y116.422 E.01963
G1 X103.057 Y116.28 E.00878
G1 X103.46 Y116.575 E.01487
G1 X103.421 Y116.654 E.00262
G1 X103.325 Y117.073 E.01279
G1 X103.339 Y117.514 E.01314
G1 X103.489 Y117.928 E.01312
G1 X103.683 Y118.21 E.0102
G1 X103.368 Y118.352 E.01029
G1 X103.078 Y118.572 E.01085
G1 X102.785 Y118.991 E.01523
G1 X102.653 Y119.456 E.01439
G1 X102.648 Y119.851 E.01178
G1 X102.8 Y120.388 E.01662
G1 X103.012 Y120.753 E.01255
G1 X103.276 Y121.003 E.01084
G1 X103.741 Y121.316 E.01671
G1 X104.527 Y121.561 E.02451
G1 X105.448 Y121.615 E.02749
G1 X106.015 Y121.535 E.01704
G1 X106.603 Y121.34 E.01847
G1 X106.879 Y121.194 E.00929
G1 X107.369 Y120.819 E.0184
G1 X107.672 Y120.471 E.01373
G1 X107.861 Y120.868 E.01309
G1 X108.175 Y121.184 E.01326
G1 X108.661 Y121.434 E.01628
G1 X108.94 Y121.465 E.00837
G1 X109.578 Y121.441 E.01901
G1 X110.396 Y121.447 E.02437
